X:70
T: ES TRIEB EIN SCHAEFER DEN BERG HINAN
N: E0043A
O: Europa, Mitteleuropa, Deutschland, Uckermark
R: erzaehlendes Volks - Lied, Ritter - Sage
M: 6/8
L: 1/16
K: C
G,2 | G,2C2C2C2B,2A,2 | A,2G,2G,2G,4
G,2 | A,3A,A,2A,2G,2F,2 | F,2E,2E,2E,4
G,2 | G,2E,2G,2C,4G,2 | G,2E,2G,2C,4
G,2 | C3CC2E2D2D2 | B,3A,B,2C4

